X: 27500
T: Molly's Graduation
R: hornpipe
M: 4/4
K: Edorian
(3=ccc|B2BA G<B FB|EFGA BA (3Bcd|e2BB egfe|dcdA BAFA|
B2BA G<B FB|EFGA BA (3Bcd|egfe dBA=c|BAFD E2:|
(3BBB|bzfz e3e|bagf efec|d2dB ABAG|FEDF AD (3FGA|
B2BA G<B FB|EFGA BA (3Bcd|egfe dBA=c|BAFD E2:|

